X:141
T:Milkmaid’s Dance. HA.140, The
M:C
L:1/8
Q:1/2=110
S:Henry Atkinson’s original MS,Hartburn,N’umberland,1694.
O:England
A:Hartburn,Northumberland
H:1/8
Z:vmp.Neil Brookes, Jan.2004
K:G
G2B4AG|d4g4|d2B2e2A2|”^=”F4D4|
E2C2E2(AG)|F2A2d2(gf)|(ed)(cB) (AB)(AG)|G4B4:|
|:d3B/2c/2d3B/2c/2|d2B2G2B2|\
A3c/2B/2″^undotted in MS”A3c/2B/2|A2d2F2A2|
d2efe2fg|f2d2g2B2|A2B2A3G|G4B4||
B2G4d>c|”^=”B4G4|A2D4A>G|”^=”F4D4|
E2C4AG|”^=”F4d4|e2A4dc|”^=”B4G4:|
|:g2d2g2gf|e2c2e2dc|d2B2G2B2|E2A2F2D2|
E2C2E2AG|F2A2d2(gf)|(ed)(cB) (AB)(AG)|G4B4|]
W: Repeats shown as in MS.

